src/rounded/icons/fi-rr-users.svg

<svg id="Layer_1" height="512" viewBox="0 0 24 24" width="512" xmlns="http://www.w3.org/2000/svg" data-name="Layer 1"><path d="m7.5 13a4.5 4.5 0 1 1 4.5-4.5 4.505 4.505 0 0 1 -4.5 4.5zm0-7a2.5 2.5 0 1 0 2.5 2.5 2.5 2.5 0 0 0 -2.5-2.5zm7.5 17v-.5a7.5 7.5 0 0 0 -15 0v.5a1 1 0 0 0 2 0v-.5a5.5 5.5 0 0 1 11 0v.5a1 1 0 0 0 2 0zm9-5a7 7 0 0 0 -11.667-5.217 1 1 0 1 0 1.334 1.49 5 5 0 0 1 8.333 3.727 1 1 0 0 0 2 0zm-6.5-9a4.5 4.5 0 1 1 4.5-4.5 4.505 4.505 0 0 1 -4.5 4.5zm0-7a2.5 2.5 0 1 0 2.5 2.5 2.5 2.5 0 0 0 -2.5-2.5z"/></svg>

<svg id="Layer_1" data-name="Layer 1" xmlns="http://www.w3.org/2000/svg" viewBox="0 0 24 24"><path d="M7.5,13A4.5,4.5,0,1,1,12,8.5,4.505,4.505,0,0,1,7.5,13Zm0-7A2.5,2.5,0,1,0,10,8.5,2.5,2.5,0,0,0,7.5,6ZM15,23v-.5a7.5,7.5,0,0,0-15,0V23a1,1,0,0,0,2,0v-.5a5.5,5.5,0,0,1,11,0V23a1,1,0,0,0,2,0Zm9-5a7,7,0,0,0-11.667-5.217,1,1,0,1,0,1.334,1.49A5,5,0,0,1,22,18a1,1,0,0,0,2,0ZM17.5,9A4.5,4.5,0,1,1,22,4.5,4.505,4.505,0,0,1,17.5,9Zm0-7A2.5,2.5,0,1,0,20,4.5,2.5,2.5,0,0,0,17.5,2Z"/></svg>
